!!!!SEGMENT: pl-sa--576-a-ix-56--002_anonim--mazur.krn
!!!cenid: 18xx:631
!!!COM: Anonim
!!!COM-rismid: pe30004985
!!!CDT:
!!!CNT:
!!!OTL: Mazur
!!!PDT:
!!!AGN: Secular; Mazurka
!!!SMS-siglum: PL-SA
!!!SMS-shelfmark: 576/A IX 56
!!!SMS-shelfwork: 002 W
!!!SMS-variant:
!!!SMS-altvar:
!!!NIFC-rismid: 1001109890
!!!system-decoration: {(s1,s2)}
**kern	**kern
*part1	*part1
*staff2	*staff1
*	*I"Piano
*clefF4	*clefG2
*k[]	*k[]
*C:	*C:
*M3/8	*M3/8
*>[A,A,B,B]	*>[A,A,B,B]
=1	=1
*>A	*>A
!	!LO:TX:a:Bi:t=Mazur
!LO:TX:a:t=P:znak początku repetycji:problem	!
!LO:TX:a:t=P:mixed beam:problem	!
8CC/L	16.g/LL
.	32g/JJk
8G 8E 8C\	8.a/L
8GJ 8E 8C\	.
.	16g/Jk
=2	=2
*rep	*
!LO:TX:a:t=P:mixed beam:problem	!
8CC/L	(>16dd\LL
.	16cc\
8G 8E 8C\	16b\
.	16dd\JJ)
8GJ 8E 8C\	8cc\
*Xrep	*
!LO:TX:a:t=P:znak końca repetycji:problem	!
=3	=3
!LO:TX:a:t=P:powtórzenie taktów oznaczone znakami repetycji:problem	!
!LO:TX:a:t=P:mixed beam:problem	!
8CC/L	16.g/LL
.	32g/JJk
8G 8E 8C\	8.a/L
8GJ 8E 8C\	.
.	16g/Jk
=4	=4
*rep	*
!LO:TX:a:t=P:mixed beam:problem	!
8CC/L	(>16dd\LL
.	16cc\
8G 8E 8C\	16b\
.	16dd\JJ)
8GJ 8E 8C\	8cc\
*Xrep	*
=5	=5
*rep	*
!LO:TX:a:t=P:mixed beam:problem	!
8CC/L	16g/LL
.	16g/JJ
8G 8E 8C\	8cc\L
8GJ 8E 8C\	8ee\J
*Xrep	*
=6	=6
*rep	*
.	8qg/
!LO:TX:a:t=P:mixed beam:problem	!
8CC/L	4aa\
8G 8E 8C\	.
8GJ 8E 8C\	8gg\
*Xrep	*
=7	=7
!LO:TX:a:t=P:mixed beam:problem	!
8GGL 8GGG/	(>16.ff\LL
.	32ee\K
8G 8D 8BB\	16.ff\
.	32g\K
8GJ 8D 8BB\	16.b\
.	32dd\JJk)
=8	=8
8G 8E 8C\	16.ff\LL
.	32ee\JJk
4C 4CC/	4cc\
=9:|!|:	=9:|!|:
*>B	*>B
8C 8CC/	(>16.ee\LL
.	32ff\JJk)
!	!LO:TX:a:t=d
8GL 8E 8C\	8.dd\L
8GJ 8E 8C\	.
!	!LO:TX:a:t=c
.	16cc\Jk
!!LO:LB:g=original
=10	=10
8GG 8GGG/	8.b/L
8GL 8D 8BB\	.
!	!LO:TX:b:t=g
.	16g/L
!	!LO:TX:b:t=h
8GJ 8D 8BB\	16b/
.	16dd/JJ
=11	=11
*rep	*
8GG 8GGG/	16aa\LL
.	16ff\JJ
8GL 8D 8BB\	8b/
8GJ 8D 8BB\	16.dd\LL
.	32ff\JJk
*Xrep	*
=12	=12
.	8qa/
8C 8CC/	4aa\
8AL 8E 8C\	.
8GJ 8E 8C\	8gg\
=13	=13
*rep	*
8C 8CC/	16.cc\LL
!	!LO:N:vis=16
.	32b\K
8AL 8E 8C\	16.cc\
!	!LO:N:vis=16
.	32ee\K
8GJ 8E 8C\	16.aa\
!	!LO:N:vis=16
.	32gg\JJk
*Xrep	*
=14	=14
8GG 8GGG/	4b\
8GL 8D 8BB\	.
8GJ 8D 8BB\	16ff\LL
.	16dd\JJ
=15	=15
*rep	*
8GG 8GGG/	16.dd\LL
.	32cc\K
8GL 8D 8BB\	16.b\
.	32g\K
8GJ 8D 8BB\	16.a\
.	32b\JJk
*Xrep	*
=16	=16
!	!LO:N:vis=16
4G 4E 4C\	16.dd\LL
.	32cc\JJk
.	4cc\
8C 8CC/	.
!LO:TX:a:t=P:ozdobna kreska końcowa :problem	!LO:TX:a:t=P:ozdobna kreska końcowa:problem
==	==
*-	*-
!!title: @{OTL};
!!!RDF**kern: > = above
!!!RDF**kern: < = below
!!!EED: Wojciech Jakubiak-Danek
!!!EST: 2020-12-10
!!!URL-scan: http://bc.bdsandomierz.pl/dlibra/publication/1384/edition/1352/content
!!!ONB-nifc: Str. 1, s. 3-4
!!!ENC: Marcin Jachim
!!!END: 2020-06-19
